!!!OTL: Et gong emol eng Ges, S. 36
!!!id: L0029
**kern
*clefG2
*k[]
*A:
{4e
=1
8a
8a
4a
4a
=2
*M2/4
2a}
=3
{8cc#
8cc#
=4
*M3/4
4cc#
4b
4a
=5
*M2/4
2b}
=6
{4b
=7
*M3/4
2dd
4b
=8
*M2/4
2cc#}
=9
{4a
=10
*M3/4
4b
4a
4g#
=11
2a}
4r
=12
*M2/4
{8.a
16b
8cc#
8a
=13
4b
4b}
=14
{8.b
16cc#
8dd
8b
=15
4cc#
4cc#}
=16
{8.gg#
16g#
8g#
8g#
=17
8a
8a
4a}
=18
{8.g#
16g#
8g#
8g#
=19
8a
8a
4a}
==
*-
!!!minrhy: 16
!!!meters: 3/4 2/4 ]  ZZ[8
!!!cut: Et gong emol eng Ges, S. 36
!!!reg: Luxemburg
!!!trd: Die Luxemburger Volkslieder &auml;lterer Zeit, Luxemburg 1904 posth.
!!!rhy1: X__  X_X_X__X__  X___   (x2)
!!!rhy2: X_X_  X__X__X__  X___
!!!key: L0029  16  A 3/4 2/4 ]  ZZ[8
!!!mod: SECHSTONSKALA DUR ?]  AMBITUS[10
!!!kad: 12312311
!!!akz: 11_32_43_21_12_23_71_-71_
!!!fot: 'a__b__bs"bs"bs"bs_c__d__
!!!for: 'a__b__c__bv_d__d__e__e__
!!!fok: '/__\__/__-__/__/__\__/__
!! PHRAS[GEMISCHTTAKTIG]
!!!fkt: ??
!!!bem: Taktwechsel, 1. Teil - langsam, 2. Teil - schnell
!! FONTAINE, Ed.:
!! PR[33] 2K[5] 2G[5] 3K[8] 3G[5] 4A[8] 4Ü[0] 5A[0] 6K[0] 6G[3]
!! 7K[0] 7G[0] 8A[0] MEHR[0] SI[33] ABS[40] SR[10] SP[23]
!! ST[12] 2k[0] 2g[15] 3k[15] 3g[0] 4d[3] 4ü[0] 5d[3] 6k[0] 6g[0]
!! 7k[0] 7g[0] 8d[0] mehr[0] si[35] dm[-2] sr[15] sp[20]
!! 1F[14] 2F[73] 3F[11] 4F[0] LF[0] 2P[0] 3P[2] 4P[0] TRI[0] DF[4] AB[44]
!! TF[0] U3K[0] U3[0] U4[0] U4Ü[0] U5[12] U6K[0] U6[0] U7K[0] U7[0]
!! N1[24] N2K[0] N2[17] N3K[0] N3[24] N4[5] N4Ü[0] N5[12] N6K[0] N6[2]
!!!n7k: 0] N7[0] O1[2] O2K[0] O2[0] O3K[0] O3[0] HÖ[0
!!!RNB: symbol: &auml;      = a umlaut  (UTF-8: Å„)
